to L :n
if :n < 2 [fd 20 lt 90 fd 20 lt 90 fd 20 stop]
lt 90
R :n-1
lt 90
fd 20
L :n - 1
rt 90
fd 20
rt 90
L :n - 1
fd 20
lt 90
R :n - 1
lt 90
end

to R :n
if :n < 2 [fd 20 rt 90 fd 20 rt 90 fd 20 stop]
rt 90
L :n-1
rt 90
fd 20
R :n - 1
lt 90
fd 20
lt 90
R :n - 1
fd 20
rt 90
L :n - 1
rt 90
end

